src/symbolic/apps/system-software-install-symbolic.svg

<svg xmlns="http://www.w3.org/2000/svg" width="16" height="16"><path d="M8 0C3.59 0 0 3.594 0 8c0 4.406 3.59 8 8 8s8-3.594 8-8c0-4.406-3.59-8-8-8zM7 4h2v4h2l-3 4.5L5 8h2z" fill="#444"/></svg>

<svg xmlns="http://www.w3.org/2000/svg" width="16" height="16" version="1.1">
 <path style="fill:#444444" d="M 8,0 C 3.59,0 0,3.594 0,8 0,12.406 3.59,16 8,16 12.41,16 16,12.406 16,8 16,3.594 12.41,0 8,0 Z M 7,4 H 9 V 8 H 11 L 8,12.5 5,8 H 7 Z"/>
</svg>
